X:5
T:Amalia Armas  (Dear Amalia)
M:2/4
L:1/16
Q:1/4=80
S:arr. Eira Mattsson (Washington DC Finlandia Foundation) ~1976
R:jenkka
B:+
K:Em
|: "Em" EEEF G2B2 | "B7" BBAG F2B,2 |BBBc BAGF | "Em" G2E2 E4 :| !
"Am" AAAB c2e2 | "D7" eedc "G" B2G2 | "D7" A2AF DFAc | "B7" B4 B4 | !
"Em" EEEF G2B2 | "B7" BBAG F2B,2 | BBBc BAG^D | "Em" F2E2 E4 ||
